src/assets/icons/arrows,fancy,up.svg

<svg width="48" height="48" viewBox="0 0 48 48" fill="none" xmlns="http://www.w3.org/2000/svg">
<path opacity="0.8" d="M28.9785 42C28.9785 43.1046 28.0831 44 26.9785 44L20.9785 44C19.8739 44 18.9785 43.1046 18.9785 42L18.9785 18C18.9785 16.8954 19.8739 16 20.9785 16L26.9785 16C28.0831 16 28.9785 16.8954 28.9785 18L28.9785 42Z" fill="black"/>
<path d="M40.5643 20.5858L25.3927 5.41421C24.6117 4.63317 23.3454 4.63317 22.5643 5.41421L7.39273 20.5858C6.61168 21.3668 6.61168 22.6332 7.39273 23.4142L11.5643 27.5858C12.3454 28.3668 13.6117 28.3668 14.3927 27.5858L22.5643 19.4142C23.3453 18.6332 24.6117 18.6332 25.3927 19.4142L33.5643 27.5858C34.3454 28.3668 35.6117 28.3668 36.3927 27.5858L40.5643 23.4142C41.3454 22.6332 41.3454 21.3668 40.5643 20.5858Z" fill="black"/>
</svg>

<svg xmlns="http://www.w3.org/2000/svg" width="48" height="48" fill="none" viewBox="0 0 48 48">
  <path fill="#000" d="M28.979 42a2 2 0 01-2 2h-6a2 2 0 01-2-2V18a2 2 0 012-2h6a2 2 0 012 2v24z" opacity=".8"/>
  <path fill="#000" d="M40.564 20.586L25.393 5.414a2 2 0 00-2.829 0L7.393 20.586a2 2 0 000 2.828l4.171 4.172a2 2 0 002.829 0l8.171-8.172a2 2 0 012.829 0l8.171 8.172a2 2 0 002.829 0l4.171-4.172a2 2 0 000-2.828z"/>
</svg>
